X:2
T:Pas d't
R:Polka
M:2/4
O:France
S:Bernard Boulanger: Playing the Bagpipes
Z:Stephen Kellett
K:C
g2g2 e2e2|c2c2 A2de|f2d2 d2ed\
|1cBcd edef:|2cBcd c4::
Gcec GBdB|Gcec GBdB|GBde fedc\
|1Bcdf e2c2:|2BcdBc4:|
